X:1
T:Title
%%score 1 { 2 | 3 }
L:1/8
Q:1/4=113
M:4/4
K:C
V:1 treble nm="Grand Piano, Soprano"
V:2 treble nm="Choir Pad, Brighton (Sabbath), SM"
V:3 bass 
V:1
 [EG]4 [Gc]2 [EG]2 | [FA]2 [FB]2 [Gc]4 | [Ge]4 [Gd]2 [Gc]2 | [GB]2 [^FA]2 G4 | [EG]4 [Gc]2 [EG]2 | %5
w: By~The~Sabbath~and~Tune~Book,~1859 * *|||||
 [FA]2 [FB]2 [Gc]2 [Gd]2 | [Ge]4 [Gd]4 | [Ec]2 [EA]2 [Fd]2 [DB]2 | [Ec]8 |] %9
w: ||||
V:2
 C4 G,2 C2 | C2 D2 E4 | C4 B,2 E2 | D2 C2 B,4 | C4 G,2 C2 | C2 D2 C2[K:bass] B,2 | C4 B,4 | %7
 C2 C2 A,2 G,2 | G,8 |] %9
V:3
 C,4 E,2 C,2 | F,2 D,2 C,4 | C,4 G,2 C,2 | D,2 D,2 G,4 | C,4 E,2 C,2 | F,2 D,2 E,2 G,2 | z4 G,4 | %7
 A,2 A,2 F,2 z2 | C,8 |] %9

